X:4211
T: Piros az ostorom nyele nem sárga
M:4/4
L:1/4
K: G
(3:2:2 B/A (3:2:2 B/c (3:2:2 d/B (3:2:2 G/D | B A G/z/ z |
(3:2:2 fe/ (3:2:2 f/g (3:2:2 a/f (3:2:2 d/A | fed/z/ z |
(3:2:2 d/(g g) d B | c/B/c/g/ | f e d  z |
(3:2:2 B/A B/c/ (3:2:2 d/B G/D/ | B A G/z/ z |

